img/benefit-icons/img4.svg

<svg width="35" height="35" viewBox="0 0 35 35" fill="none" xmlns="http://www.w3.org/2000/svg">
<path d="M18.0018 9.73944C13.4472 9.73944 9.74219 13.4445 9.74219 17.9991C9.74219 22.5537 13.4472 26.2588 18.0018 26.2588C22.5565 26.2588 26.2615 22.5537 26.2615 17.9991C26.2615 13.4445 22.5565 9.73944 18.0018 9.73944ZM18.0018 25.0788C14.098 25.0788 10.9221 21.903 10.9221 17.9991C10.9221 14.0952 14.098 10.9194 18.0018 10.9194C21.9057 10.9194 25.0815 14.0952 25.0815 17.9991C25.0815 21.903 21.9057 25.0788 18.0018 25.0788Z" fill="#0383FD"/>
<path d="M21.1246 15.2221L16.822 19.5248L14.8786 17.582C14.6479 17.3513 14.275 17.3513 14.0443 17.582C13.8137 17.8127 13.8137 18.1862 14.0443 18.4162L16.4048 20.7761C16.5205 20.8912 16.6715 20.949 16.822 20.949C16.9724 20.949 17.124 20.8912 17.2391 20.7761L21.9589 16.0563C22.1896 15.8257 22.1896 15.4528 21.9589 15.2221C21.7282 14.9914 21.3553 14.9914 21.1246 15.2221Z" fill="#0383FD"/>
<path d="M29.7247 16.0799C29.4817 15.9 29.4061 15.5442 29.5672 15.2882C30.1436 14.3714 30.9808 12.4457 28.0982 11.7395C27.8044 11.6675 27.5867 11.3637 27.6492 11.0687C27.9259 9.77427 27.5383 7.89461 24.933 8.35243C24.6362 8.40435 24.3206 8.20022 24.2622 7.90346C24.0669 6.91112 23.2256 4.90107 20.714 6.43383C20.4556 6.59135 20.0438 6.50581 19.9223 6.27572C19.5323 5.53884 17.8243 3.83971 16.0816 6.27572C15.9057 6.52174 15.5016 6.58486 15.2898 6.43324C14.1464 5.61435 12.2992 5.40963 11.7411 7.90228C11.6768 8.18842 11.3724 8.40789 11.0697 8.35066C10.0703 8.16069 7.87677 8.22323 8.35524 11.0669C8.40538 11.3648 8.20538 11.6935 7.90685 11.7383C6.74283 11.9123 4.94813 12.8475 6.43664 15.2864C6.59416 15.5442 6.54873 15.9419 6.27911 16.0782C5.24607 16.6003 4.06316 18.4575 6.27911 19.9207C6.53103 20.087 6.59416 20.4452 6.43664 20.703C4.94813 23.1419 6.74283 24.0765 7.90685 24.2511C8.20597 24.2959 8.40538 24.6245 8.35524 24.9225C7.87677 27.7662 10.0703 27.8287 11.0709 27.6381C11.3735 27.5803 11.678 27.8004 11.7423 28.0865C12.3004 30.5798 14.1476 30.3744 15.291 29.5556C15.5028 29.4039 15.9069 29.4671 16.0827 29.7131C17.8255 32.1497 19.5335 30.4506 19.9235 29.7131C20.045 29.4836 20.4568 29.3974 20.7152 29.555C23.2267 31.0877 24.0681 29.0777 24.2633 28.0853C24.3217 27.7886 24.6374 27.5844 24.9341 27.6364C27.5395 28.0942 27.9265 26.2145 27.6504 24.9201C27.5873 24.6251 27.8055 24.3213 28.0994 24.2493C30.9826 23.5431 30.1454 21.6174 29.5684 20.7006C29.4073 20.4446 29.4769 20.0811 29.7247 19.9101C30.4952 19.3773 32.1613 17.8829 29.7247 16.0799ZM28.8823 21.9584C29.0828 22.2812 28.9589 22.7248 28.5023 22.8753C27.6657 23.1514 26.1241 23.3785 26.5353 25.8204C26.6138 26.2847 26.3654 26.5626 25.8333 26.5219C25.0238 26.46 23.3571 26.1325 22.8893 28.4895C22.7967 28.955 22.3406 29.0558 21.9725 28.87C20.3842 28.0682 19.7488 27.9656 18.4993 29.5609C18.2603 29.8659 17.7624 29.8529 17.5063 29.5609C16.835 28.7957 16.0745 27.6193 14.0326 28.8706C13.6774 29.0883 13.2727 28.9202 13.1157 28.4907C12.7081 27.3721 12.5877 26.1797 10.1712 26.5237C9.79832 26.5768 9.40303 26.3243 9.4697 25.8222C9.59654 24.8617 9.74227 23.3195 7.50154 22.877C7.15582 22.8086 6.88561 22.3472 7.1216 21.9602C8.01659 20.4965 7.89269 19.5808 6.41776 18.4805C6.25138 18.3566 5.98058 17.8239 6.43074 17.5018C7.86733 16.474 8.01659 15.4929 7.1216 14.0286C6.88502 13.6416 7.15582 13.1796 7.50154 13.1118C9.74227 12.6693 9.59654 11.1271 9.4697 10.1666C9.40303 9.66454 9.79891 9.41203 10.1712 9.46512C12.5877 9.80849 12.7081 8.61674 13.1157 7.49815C13.2721 7.06805 13.6774 6.9005 14.0326 7.1182C16.0751 8.36954 16.8355 7.19313 17.5063 6.42793C17.7624 6.13589 18.2597 6.12291 18.4993 6.42793C19.7488 8.02322 20.3842 7.92057 21.9725 7.11879C22.3406 6.93295 22.7967 7.03384 22.8893 7.49933C23.3571 9.85628 25.0238 9.52884 25.8333 9.46689C26.366 9.42619 26.6138 9.70406 26.5353 10.1684C26.1241 12.6109 27.6657 12.8374 28.5023 13.1135C28.9589 13.264 29.0828 13.7082 28.8823 14.0304C27.5701 16.1377 28.9566 16.9755 29.5731 17.5041C29.8138 17.7106 29.9525 18.1985 29.6286 18.451C28.8917 18.9608 27.5701 19.8511 28.8823 21.9584Z" fill="#0383FD"/>
</svg>

<svg width="35" height="35" fill="none" xmlns="http://www.w3.org/2000/svg"><path d="M18.002 9.74c-4.555 0-8.26 3.704-8.26 8.26 0 4.554 3.705 8.259 8.26 8.259s8.26-3.705 8.26-8.26c0-4.554-3.706-8.26-8.26-8.26zm0 15.339a7.088 7.088 0 01-7.08-7.08 7.088 7.088 0 017.08-7.08 7.088 7.088 0 017.08 7.08 7.088 7.088 0 01-7.08 7.08z" fill="#0383FD"/><path d="M21.125 15.222l-4.303 4.303-1.943-1.943a.59.59 0 10-.835.834l2.36 2.36a.59.59 0 00.835 0l4.72-4.72a.59.59 0 10-.834-.834z" fill="#0383FD"/><path d="M29.725 16.08a.605.605 0 01-.158-.792c.577-.917 1.414-2.842-1.469-3.549-.294-.072-.511-.375-.449-.67.277-1.295-.11-3.174-2.716-2.717-.297.052-.612-.152-.67-.449-.196-.992-1.037-3.002-3.549-1.47-.258.158-.67.073-.792-.157-.39-.737-2.098-2.436-3.84 0-.176.246-.58.309-.792.157-1.144-.819-2.99-1.023-3.549 1.47a.598.598 0 01-.671.448c-1-.19-3.193-.128-2.715 2.716.05.298-.15.627-.448.671-1.164.174-2.959 1.11-1.47 3.548.157.258.112.656-.158.792-1.033.522-2.216 2.38 0 3.843.252.166.315.524.158.782-1.489 2.439.306 3.373 1.47 3.548.299.045.498.373.448.671-.478 2.844 1.715 2.907 2.716 2.716a.598.598 0 01.671.448c.558 2.494 2.406 2.288 3.549 1.47.212-.152.616-.089.792.157 1.743 2.437 3.45.738 3.84 0 .122-.23.534-.316.792-.158 2.512 1.533 3.353-.477 3.548-1.47.059-.296.374-.5.671-.449 2.605.458 2.992-1.421 2.716-2.716-.063-.295.155-.599.45-.67 2.883-.707 2.045-2.633 1.468-3.55a.597.597 0 01.157-.79c.77-.533 2.436-2.027 0-3.83zm-.843 5.878c.2.323.077.767-.38.917-.836.276-2.378.503-1.967 2.945.079.465-.17.743-.702.702-.81-.062-2.476-.39-2.944 1.968-.092.465-.548.566-.916.38-1.589-.802-2.224-.904-3.474.69-.239.306-.737.293-.993 0-.671-.764-1.431-1.94-3.473-.69-.356.218-.76.05-.917-.38-.408-1.118-.528-2.31-2.945-1.966-.373.053-.768-.2-.701-.702.127-.96.272-2.502-1.968-2.945-.346-.068-.616-.53-.38-.917.895-1.463.77-2.38-.704-3.48-.167-.123-.437-.656.013-.978 1.436-1.028 1.586-2.01.69-3.473-.236-.387.035-.85.38-.917 2.241-.443 2.096-1.985 1.969-2.945-.067-.502.329-.755.701-.702 2.417.343 2.537-.848 2.945-1.967.156-.43.561-.598.917-.38 2.042 1.252 2.803.075 3.473-.69.256-.292.754-.305.993 0 1.25 1.595 1.885 1.493 3.474.69.368-.185.824-.084.916.381.468 2.357 2.135 2.03 2.944 1.968.533-.04.78.237.702.701-.41 2.443 1.13 2.67 1.967 2.946.457.15.58.594.38.916-1.312 2.108.075 2.946.691 3.474.24.207.38.694.056.947-.737.51-2.059 1.4-.747 3.507z" fill="#0383FD"/></svg>
